X: 7
T: Missa Ecce ancilla domini / Gloria
N: Derived from Duf1003b-Missa_Ecce_ancilla_domini-Gloria.krn
C: Guillaume Du Fay
%%abc-version 2.0
%%abcx-abcm2ps-target-version 5.9.1 (29 Sep 2008)
%%abc-creator hum2abc beta
%%abcx-conversion-date 2019/02/16 20:31:46
%%abc-edited-by Alejandro Planchart, Jesse Rodin
%%abc-edited-by Alejandro Planchart
%%abcx-initial-encoding-date 2014/07/24/
%%humdrum-veritas 3150818740
%%humdrum-veritas-data 194781982
%%linebreak <none>
%%barnumbers 0
L: 1/4
M: 3/1
Q: 1/2=120
%%staves [1 2 3 4]
V: 1 clef=treble
V: 2 clef=treble-8
V: 3 clef=treble-8
V: 4 clef=bass
K: F
[V:1] G12 | 
[V:2] G6A2=B4 | 
[V:3] z12 | 
[V:4] z12 | 
[V:1] E4F6E2 | 
[V:2] c4d6c2 | 
[V:3] z12 | 
[V:4] z12 | 
[V:1] E4A6G2 | 
[V:2] c8A4 | 
[V:3] z12 | 
[V:4] z12 | 
[V:1] G8E2D2 | 
[V:2] =B4c6=B2 | 
[V:3] z12 | 
[V:4] z12 | 
[V:1] E4D2D4C=B, | 
[V:2] G8G2E2 | 
[V:3] z12 | 
[V:4] z12 | 
[V:1] A,4G,4z2G2- | 
[V:2] ^F4G8 | 
[V:3] z12 | 
[V:4] z12 | 
[V:1] GFG2A2F2G3F | 
[V:2] =B4c2A2G2c2- | 
[V:3] z12 | 
[V:4] z12 | 
[V:1] E2D4G2E2F2 | 
[V:2] c2d2=B2G2A4 | 
[V:3] z12 | 
[V:4] z12 | 
[V:1] G2A3GG4^F2 | 
[V:2] =B2c4=B2A4 | 
[V:3] z12 | 
[V:4] z12 | 
[V:1] G12 | 
[V:2] G8z4 | 
[V:3] z12 | 
[V:4] z12 | 
[V:1] z2E3DE2F2G2 | 
[V:2] c4=B2A4G2 | 
[V:3] z12 | 
[V:4] z12 | 
[V:1] FEDC=B,2E4D2 | 
[V:2] A4E2G2F4 | 
[V:3] z12 | 
[V:4] z12 | 
[V:1] E2C4C2D=B,2G, | 
[V:2] E4A4G3E | 
[V:3] z12 | 
[V:4] z12 | 
[V:1] A,2G,2z2E2DF2G | 
[V:2] F2G2C4D4 | 
[V:3] z12 | 
[V:4] z12 | 
[V:1] E2D3CC4=B,2 | 
[V:2] C2F4E2D4 | 
[V:3] z12 | 
[V:4] z12 | 
[V:1] C4z4D2E2- | 
[V:2] C8G4 | 
[V:3] z12 | 
[V:4] z12 | 
[V:1] E2F2D4C4 | 
[V:2] A4=B4A2c2- | 
[V:3] z12 | 
[V:4] z12 | 
[V:1] E2FG2FEDD4 | 
[V:2] c2=B2G6F2 | 
[V:3] z12 | 
[V:4] z12 | 
[V:1] z2G2A2E2^F3E | 
[V:2] G2=B2A8 | 
[V:3] z12 | 
[V:4] z12 | 
[V:1] G12- | 
[V:2] G12 | 
[V:3] z12 | 
[V:4] z12 | 
[V:1] G12 | 
[V:2] z12 | 
[V:3] G12 | 
[V:4] z4z4G,4 | 
[V:1] z12 | 
[V:2] G4G4A4 | 
[V:3] c12- | 
[V:4] C,8F,4 | 
[V:1] G4G4G4 | 
[V:2] G6E4F2 | 
[V:3] c12 | 
[V:4] E,4C,8 | 
[V:1] E8C4 | 
[V:2] G2A4G2E2F2 | 
[V:3] c12 | 
[V:4] C,6B,,2A,,4 | 
[V:1] D4G3FD4 | 
[V:2] G8z4 | 
[V:3] =B12- | 
[V:4] G,,8G,,4 | 
[V:1] z4G4G4 | 
[V:2] d4d4d4 | 
[V:3] B12 | 
[V:4] G,8G,4 | 
[V:1] A2B2G4G4 | 
[V:2] d8c2B2 | 
[V:3] z12 | 
[V:4] F,2G,4F,2E,4 | 
[V:1] ^F8F4 | 
[V:2] d8d4 | 
[V:3] A12 | 
[V:4] D,12 | 
[V:1] G8D4 | 
[V:2] B8B4 | 
[V:3] G12 | 
[V:4] z4G,,8 | 
[V:1] D2F4G2A4 | 
[V:2] A4F4D4 | 
[V:3] A12 | 
[V:4] D,6E,2F,4 | 
[V:1] G2G4FED4 | 
[V:2] z4d8 | 
[V:3] B12 | 
[V:4] G,8G,4 | 
[V:1] z4F4F4 | 
[V:2] d4d8 | 
[V:3] A12 | 
[V:4] D,12 | 
[V:1] G4A4B2G2 | 
[V:2] c4d6c2 | 
[V:3] G4F4G4- | 
[V:4] _E,4D,4G,,4- | 
[V:1] G6^F2F2E2 | 
[V:2] B4A4d4 | 
[V:3] G4A8 | 
[V:4] G,,4D,8 | 
[V:1] G12 | 
[V:2] d12 | 
[V:3] G12 | 
[V:4] G,,8z4 | 
[V:1] z12 | 
[V:2] z4z4G4 | 
[V:3] G12 | 
[V:4] G,,6A,,2B,,4 | 
[V:1] z12 | 
[V:2] A4=B6A2 | 
[V:3] z12 | 
[V:4] C,4D,8 | 
[V:1] z12 | 
[V:2] c4=B2G2A2=B2 | 
[V:3] z12 | 
[V:4] C,4E,4F,2G,2- | 
[V:1] z12 | 
[V:2] G4A2G4F2 | 
[V:3] z12 | 
[V:4] G,2E,2F,2G,2A,4 | 
[V:1] z12 | 
[V:2] G2E2C2c4=B2 | 
[V:3] z12 | 
[V:4] G,2G,3F,E,2D,4 | 
[V:1] z12 | 
[V:2] c2e2d2c4=B2 | 
[V:3] z12 | 
[V:4] C,4B,,2C,2D,4 | 
[V:1] z12 | 
[V:2] c3=BA2G3FE2 | 
[V:3] z12 | 
[V:4] E,2C,4B,,2C,4 | 
[V:1] z12 | 
[V:2] D2F2B2A2G2c2 | 
[V:3] z12 | 
[V:4] G,,2A,,2G,,2C,4_E,2 | 
[V:1] z12 | 
[V:2] B2A3GG4^F2 | 
[V:3] z12 | 
[V:4] D,2C,4B,,2A,,4 | 
[V:1] z12 | 
[V:2] G8z4 | 
[V:3] z12 | 
[V:4] G,,12 | 
[V:1] G6A2=B4 | 
[V:2] c4=B2c2d4 | 
[V:3] z12 | 
[V:4] z12 | 
[V:1] c3=BAGG4^F2 | 
[V:2] e2c4=B2A4 | 
[V:3] z12 | 
[V:4] z12 | 
[V:1] G4z2G2E2A2 | 
[V:2] G4G2E2AGF2 | 
[V:3] z12 | 
[V:4] z12 | 
[V:1] G2E2z2E2G2E2 | 
[V:2] E2z2E2G2E2C2 | 
[V:3] z12 | 
[V:4] z12 | 
[V:1] C2z2F2E2D3C | 
[V:2] z2E2D2G4F2 | 
[V:3] z12 | 
[V:4] z12 | 
[V:1] C2=B,A,G,2A,2B,3A, | 
[V:2] E2DC=B,2C2D4 | 
[V:3] z12 | 
[V:4] z12 | 
[V:1] C4z4E4 | 
[V:2] C12 | 
[V:3] z12 | 
[V:4] z12 | 
[V:1] D4E2G4F2 | 
[V:2] z12 | 
[V:3] G8E2F2 | 
[V:4] G,,4C,8 | 
[V:1] E2D2D4^C2=B,2 | 
[V:2] z12 | 
[V:3] G4F2D2E4 | 
[V:4] C,4D,2B,,2A,,4 | 
[V:1] D2z2A4F4 | 
[V:2] z12 | 
[V:3] D8D4 | 
[V:4] z2F,4G,2A,4 | 
[V:1] G4A6G2 | 
[V:2] z12 | 
[V:3] E4F8 | 
[V:4] G,4D,8 | 
[V:1] =B4c2B2A3G | 
[V:2] z12 | 
[V:3] G4A2G2c4 | 
[V:4] G,,4F,,2G,,2A,,2F,,2 | 
[V:1] G6^F2F2E2 | 
[V:2] z12 | 
[V:3] =B4A8 | 
[V:4] G,,4D,8 | 
[V:1] G4G4E4 | 
[V:2] C4G2E4C2- | 
[V:3] G12- | 
[V:4] E,4C,4G,2E,2- | 
[V:1] C2E2D2C3=B,B,A, | 
[V:2] C=B,C2D2E2D4 | 
[V:3] G12 | 
[V:4] E,2C,2B,,2C,2G,,4 | 
[V:1] C12 ||  
[V:2] C12 ||  
[V:3] G12 ||  
[V:4] C,12 ||  
[V:1]  [K:F] [K:clef=treble][M:2/1]C8 | 
[V:2]  [K:F] [K:clef=treble-8][M:2/1]c8 | 
[V:3]  [K:F] [K:clef=treble-8][M:2/1]z8 | 
[V:4]  [K:F] [K:clef=bass][M:2/1]z8 | 
[V:1] E6F2 | 
[V:2] c8 | 
[V:3] z8 | 
[V:4] z8 | 
[V:1] G4A4 | 
[V:2] =B4A4- | 
[V:3] z8 | 
[V:4] z8 | 
[V:1] F4G4- | 
[V:2] A4G4 | 
[V:3] z8 | 
[V:4] z8 | 
[V:1] G2F2E2C2 | 
[V:2] c8 | 
[V:3] z8 | 
[V:4] z8 | 
[V:1] D4C4 | 
[V:2] =B4c4 | 
[V:3] z8 | 
[V:4] z8 | 
[V:1] z4F4 | 
[V:2] d8 | 
[V:3] z8 | 
[V:4] z8 | 
[V:1] E4A4- | 
[V:2] c8 | 
[V:3] z8 | 
[V:4] z8 | 
[V:1] A4G4 | 
[V:2] d4e4- | 
[V:3] z8 | 
[V:4] z8 | 
[V:1] E8 | 
[V:2] e4c4 | 
[V:3] z8 | 
[V:4] z8 | 
[V:1] F4G4- | 
[V:2] d4=B4 | 
[V:3] z8 | 
[V:4] z8 | 
[V:1] G2F2E4 | 
[V:2] c8 | 
[V:3] z8 | 
[V:4] z8 | 
[V:1] D8 | 
[V:2] z4=B4 | 
[V:3] z8 | 
[V:4] z8 | 
[V:1] C8 | 
[V:2] c4A4 | 
[V:3] z8 | 
[V:4] z8 | 
[V:1] z4=B,4 | 
[V:2] G8 | 
[V:3] z8 | 
[V:4] z8 | 
[V:1] C4A,4 | 
[V:2] F8 | 
[V:3] z8 | 
[V:4] z8 | 
[V:1] G,8 | 
[V:2] G4E4 | 
[V:3] z8 | 
[V:4] z8 | 
[V:1] z4G4 | 
[V:2] F4G4- | 
[V:3] z8 | 
[V:4] z8 | 
[V:1] E4F4 | 
[V:2] G2F2D4 | 
[V:3] z8 | 
[V:4] z8 | 
[V:1] G6F2 | 
[V:2] C8 | 
[V:3] z8 | 
[V:4] z8 | 
[V:1] D4C4 | 
[V:2] F4E4 | 
[V:3] z8 | 
[V:4] z8 | 
[V:1] F4G2A2- | 
[V:2] D8 | 
[V:3] z8 | 
[V:4] z8 | 
[V:1] A2G2E4 | 
[V:2] C8 | 
[V:3] z8 | 
[V:4] z8 | 
[V:1] D2F2E2G2- | 
[V:2] =B,4C4- | 
[V:3] z8 | 
[V:4] z8 | 
[V:1] G2E4C2 | 
[V:2] C4E4 | 
[V:3] z8 | 
[V:4] z8 | 
[V:1] =B,2C2D2B,2 | 
[V:2] D8 | 
[V:3] z8 | 
[V:4] z8 | 
[V:1] C8- | 
[V:2] C8 | 
[V:3] z8 | 
[V:4] z8 | 
[V:1] C8 | 
[V:2] z8 | 
[V:3] z8 | 
[V:4] z8 | 
[V:1] z8 | 
[V:2] G4A2c2- | 
[V:3] z8 | 
[V:4] C,8- | 
[V:1] G4A2c2- | 
[V:2] c2=B2A4 | 
[V:3] z8 | 
[V:4] C,4C,4- | 
[V:1] c2=B2A4 | 
[V:2] G4A2F2 | 
[V:3] z8 | 
[V:4] C,4F,4 | 
[V:1] G4A2F2 | 
[V:2] G2E2F2D2 | 
[V:3] z8 | 
[V:4] E,4D,4 | 
[V:1] G2E2F2D2 | 
[V:2] E4D2F2 | 
[V:3] z8 | 
[V:4] C,4D,4 | 
[V:1] E4D2F2 | 
[V:2] E2C2D4 | 
[V:3] z8 | 
[V:4] A,,4B,,4 | 
[V:1] E2C2D4 | 
[V:2] C4=B,4 | 
[V:3] z8 | 
[V:4] C,4G,,4 | 
[V:1] C4z4 | 
[V:2] C8 | 
[V:3] z8 | 
[V:4] z2G,4E,2- | 
[V:1] E6D2- | 
[V:2] z4G4 | 
[V:3] z8 | 
[V:4] E,2C,4B,,2 | 
[V:1] D4G4 | 
[V:2] F2G4=B2 | 
[V:3] z8 | 
[V:4] A,,2G,,6 | 
[V:1] F4E2A2- | 
[V:2] A2=B2c4 | 
[V:3] z8 | 
[V:4] D,4C,2F,2- | 
[V:1] A2G4F2 | 
[V:2] A2=B2c2d2- | 
[V:3] z8 | 
[V:4] F,2E,4D,2 | 
[V:1] G2A2D2E2 | 
[V:2] d2c2=B2G2 | 
[V:3] z8 | 
[V:4] E,2F,2G,4 | 
[V:1] G2^F4E2 | 
[V:2] A8 | 
[V:3] z8 | 
[V:4] D,8 | 
[V:1] G8- | 
[V:2] G4z4 | 
[V:3] G8- | 
[V:4] G,,8 | 
[V:1] G8 | 
[V:2] d8 | 
[V:3] G8 | 
[V:4] z8 | 
[V:1] z8 | 
[V:2] c6=B2 | 
[V:3] G8 | 
[V:4] C,8- | 
[V:1] z8 | 
[V:2] G4A4 | 
[V:3] c8- | 
[V:4] C,8 | 
[V:1] z8 | 
[V:2] G4E4 | 
[V:3] c8 | 
[V:4] C,8 | 
[V:1] z8 | 
[V:2] F4D4 | 
[V:3] A8 | 
[V:4] D,4F,4 | 
[V:1] z8 | 
[V:2] z4C4 | 
[V:3] G8 | 
[V:4] E,8 | 
[V:1] z8 | 
[V:2] F4E4- | 
[V:3] A8 | 
[V:4] D,4C,4- | 
[V:1] z8 | 
[V:2] E2D2D4- | 
[V:3] G8 | 
[V:4] C,4B,,4 | 
[V:1] z8 | 
[V:2] D4C4 | 
[V:3] F8 | 
[V:4] A,,8 | 
[V:1] z8 | 
[V:2] D2z2D4 | 
[V:3] G8 | 
[V:4] G,,4B,,4 | 
[V:1] z8 | 
[V:2] E4F4- | 
[V:3] A8- | 
[V:4] A,,4D,4- | 
[V:1] z8 | 
[V:2] F2E2E4 | 
[V:3] A8 | 
[V:4] D,4C,4 | 
[V:1] z8 | 
[V:2] D6C2 | 
[V:3] G6F2 | 
[V:4] B,,8 | 
[V:1] z8 | 
[V:2] E8 | 
[V:3] A8- | 
[V:4] A,,8 | 
[V:1] z8 | 
[V:2] D4z4 | 
[V:3] A8 | 
[V:4] F,8 | 
[V:1] z8 | 
[V:2] G4A4 | 
[V:3] z8 | 
[V:4] E,4D,4- | 
[V:1] z8 | 
[V:2] =B4c4 | 
[V:3] z8 | 
[V:4] D,4C,4 | 
[V:1] z8 | 
[V:2] =B2A4F2 | 
[V:3] z8 | 
[V:4] D,4A,,4 | 
[V:1] z8 | 
[V:2] G4A4 | 
[V:3] z8 | 
[V:4] B,,4C,4 | 
[V:1] z8 | 
[V:2] =B4G4- | 
[V:3] z8 | 
[V:4] G,,4B,,4 | 
[V:1] z8 | 
[V:2] G2^F2^F2E2 | 
[V:3] z8 | 
[V:4] A,,8 | 
[V:1] z8 | 
[V:2] G4z2=B2- | 
[V:3] z8 | 
[V:4] G,,8 | 
[V:1] z8 | 
[V:2] B2c2d4 | 
[V:3] z8 | 
[V:4] G,8 | 
[V:1] z8 | 
[V:2] e2c2c4 | 
[V:3] G8 | 
[V:4] C,4E,4 | 
[V:1] z8 | 
[V:2] =B2=B4A2 | 
[V:3] F8 | 
[V:4] D,8 | 
[V:1] E8 | 
[V:2] c8- | 
[V:3] G8 | 
[V:4] C,8 | 
[V:1] F4E4- | 
[V:2] c8 | 
[V:3] A8 | 
[V:4] z8 | 
[V:1] E4A4- | 
[V:2] z8 | 
[V:3] A8 | 
[V:4] z8 | 
[V:1] A4D4 | 
[V:2] z8 | 
[V:3] d8- | 
[V:4] z8 | 
[V:1] F4G2A2- | 
[V:2] z8 | 
[V:3] d4c4- | 
[V:4] z8 | 
[V:1] A2G2E4 | 
[V:2] z8 | 
[V:3] c2=B2c4 | 
[V:4] C,8 | 
[V:1] F2D2F2G2 | 
[V:2] z8 | 
[V:3] d8 | 
[V:4] B,,8 | 
[V:1] E8 | 
[V:2] z8 | 
[V:3] c8 | 
[V:4] C,8 | 
[V:1] z4F4- | 
[V:2] z8 | 
[V:3] A8 | 
[V:4] F,6E,2 | 
[V:1] F4E4- | 
[V:2] z8 | 
[V:3] =B4c4 | 
[V:4] D,4C,4- | 
[V:1] E4D4 | 
[V:2] z8 | 
[V:3] A8 | 
[V:4] C,4D,4 | 
[V:1] C4D4 | 
[V:2] z8 | 
[V:3] A8 | 
[V:4] A,,4B,,4 | 
[V:1] E8 | 
[V:2] z8 | 
[V:3] G8 | 
[V:4] C,8 | 
[V:1] A,8 | 
[V:2] d8 | 
[V:3] F8 | 
[V:4] D,8 | 
[V:1] B,8 | 
[V:2] d8 | 
[V:3] G4G4- | 
[V:4] G,,8 | 
[V:1] A,8 | 
[V:2] [D8d8] | 
[V:3] G4^F4 | 
[V:4] z8 | 
[V:1] z4D4 | 
[V:2] [D8d8] | 
[V:3] G8 | 
[V:4] G,,8 | 
[V:1] C4E4- | 
[V:2] z8 | 
[V:3] G8- | 
[V:4] C,8 | 
[V:1] E2D2D4 | 
[V:2] =B8 | 
[V:3] G8 | 
[V:4] G,,8 | 
[V:1] G4F2E2- | 
[V:2] d4c4 | 
[V:3] G4A4- | 
[V:4] B,,4A,,4 | 
[V:1] E2D2D4- | 
[V:2] A8- | 
[V:3] A4F4 | 
[V:4] D,8 | 
[V:1] D4^C4 | 
[V:2] A4A4 | 
[V:3] E8 | 
[V:4] A,,8 | 
[V:1] D8 | 
[V:2] A8 | 
[V:3] D8 | 
[V:4] z8 | 
[V:1] z8 | 
[V:2] z4A4- | 
[V:3] F8- | 
[V:4] D,8- | 
[V:1] A8 | 
[V:2] A4d4 | 
[V:3] F8 | 
[V:4] D,8 | 
[V:1] G4G4- | 
[V:2] =B4c4 | 
[V:3] G8 | 
[V:4] E,8 | 
[V:1] G4^F4 | 
[V:2] d8 | 
[V:3] A8 | 
[V:4] D,8 | 
[V:1] G8 | 
[V:2] d8 | 
[V:3] G8 | 
[V:4] G,,8- | 
[V:1] [D8G8] | 
[V:2] =B8 | 
[V:3] G8 | 
[V:4] G,,8 | 
[V:1] E8 | 
[V:2] G4c4- | 
[V:3] G4G4- | 
[V:4] C,8- | 
[V:1] E8 | 
[V:2] c2=B2A4 | 
[V:3] G4F4 | 
[V:4] C,8 | 
[V:1] C4z4 | 
[V:2] G8- | 
[V:3] E8 | 
[V:4] C,8 | 
[V:1] =B,6C2 | 
[V:2] G8- | 
[V:3] D8 | 
[V:4] G,,6A,,2 | 
[V:1] D4G4 | 
[V:2] G8 | 
[V:3] z8 | 
[V:4] B,,4C,4 | 
[V:1] (3F8E2D2 | 
[V:2] z8 | 
[V:3] F8 | 
[V:4] (3D,8C,2B,,2 | 
[V:1] C8 | 
[V:2] C8 | 
[V:3] F8 | 
[V:4] A,,8 | 
[V:1] =B,4C4 | 
[V:2] D4_E4 | 
[V:3] G8- | 
[V:4] G,,4C,4 | 
[V:1] D8 | 
[V:2] D8 | 
[V:3] G8 | 
[V:4] B,,4G,,4 | 
[V:1] G,4C4- | 
[V:2] _E4C4 | 
[V:3] G8- | 
[V:4] C,8 | 
[V:1] C2=B,2B,2A,2 | 
[V:2] D8 | 
[V:3] G8 | 
[V:4] G,,8 | 
[V:1] C8- | 
[V:2] _E6C2 | 
[V:3] G8- | 
[V:4] C,8- | 
[V:1] C8 |]  
[V:2] C8 |]  
[V:3] G8 |]  
[V:4] C,8 |]  



